!!!!SEGMENT: pl-wn--sd-xvi-qu-273--112_gomolka-mikolaj--szczesliwy-czlowiek-prawdziwie.krn
!!!cenid: 15xx:317
!!!COM: Gomółka, Mikołaj
!!!COM-rismid: pe30013343
!!!CDT: ~1535->1591/04/30
!!!CNT: Polish
!!!GTL: Melodiae na psalterz polski
!!!OTL: CXII. Szczęśliwy człowiek prawdziwie,
!!!PDT: 1580
!!!AGN: Sacred
!!!SMS-siglum: PL-Wn
!!!SMS-shelfmark: SD XVI.Qu.273
!!!SMS-shelfwork: 112 G
!!!NIFC-rismid:
!!!ONB-nifc: Melodiae na psalterz polski
**kern	**text	**kern	**text	**kern	**text	**kern	**text
*part4	*part4	*part3	*part3	*part2	*part2	*part1	*part1
*staff4	*staff4	*staff3	*staff3	*staff2	*staff2	*staff1	*staff1
*clefF3	*	*clefC3	*	*clefC3	*	*clefG2	*
*k[]	*	*k[]	*	*k[]	*	*k[]	*
*C:	*	*C:	*	*C:	*	*C:	*
*M4/2	*	*M4/2	*	*M4/2	*	*M4/2	*
*met(C|)	*	*met(C|)	*	*met(C|)	*	*met(C|)	*
=-	=-	=-	=-	=-	=-	=-	=-
*>A	*	*	*	*	*	*	*
1G	Sӡcӡęś-	1B	Sӡcӡęś-	1d	Sӡcӡęś-	1g	Sӡcӡęś-
2C	-li-	2c/	-li-	2e	-li-	2g	-li-
2.F	-wy	2c/	-wy	2f	-wy	2.a	-wy
=3-	=3-	=3-	=3-	=3-	=3-	=3-	=3-
.	.	2f	cӡło-	2.c	cӡło-	.	.
4G	cӡło-	.	.	.	.	4b/	cӡło-
2A	-wieť	2f	-wieť	.	.	2cc	-wieť
.	.	.	.	4d	-wieť	.	.
2A	práw-	2e	práw-	2e	práw-	2cc	práw-
2A	-dӡi-	4d	-dӡi-	2f	-dӡi-	4b/	-dӡi-
.	.	4c	.	.	.	4a	.
=4-	=4-	=4-	=4-	=4-	=4-	=4-	=4-
2G	-(wie)	1d	-(wie)	2g	-(wie)	2b	-(wie)
2G	.	.	.	2.g	.	2dd	.
2C	Kto	2.c	Kto	.	.	2.ee	Kto
.	.	.	.	4f	Kto	.	.
2E	w_bo	.	.	2.e	w_bo	.	.
.	.	4B	w_bo	.	.	4dd	w_bo
=5-	=5-	=5-	=5-	=5-	=5-	=5-	=5-
2A	iáʒ́-	4c	iáʒ́-	.	.iáʒ́-	2cc	iáʒ́-
.	.	4d	.	4f	.	.	.
4E	.	2e	-	2g	.	4b	.
4F	.	.	.	.	.	4a	.
2G	-ni	2.d	-ni	2.g	-ni	2.b	-ni
2G	.	.	.	.	.	.	.
.	.	4c/	.	4f	.	4a	.
=6-	=6-	=6-	=6-	=6-	=6-	=6-	=6-
2G	páń-	2B	páń-	4e	páń-	2g	páń-
.	.	.	.	4d	.	.	.
2C	-ʃť(iej)	4c	.	2e	-ʃť(iej)	1g	-ʃť(iej)
.	.	4B	.	.	.	.	.
1D	ʒ̇y-	4A	-ʃť(iej)	2.d	ʒ̇y-	.	.
.	.	4G	.	.	.	.	.
.	.	2A	ʒ̇y-	.	.	2f	ʒ̇y-
.	.	.	.	4c	.	.	.
=7-	=7-	=7-	=7-	=7-	=7-	=7-	=7-
2G	-wie:	2G	-wie:	2B	-wie:	2g	-wie:
2G	A	2d	A	2g	A	2b/	A
!!LO:PB:g=original
2.C	ie-	4e	ie-	2.g	ie-	2.cc	ie-
.	.	4d	.	.	.	.	.
.	.	4e	.	.	.	.	.
4D	.	4f	.	4f	.	4a	.
=8-	=8-	=8-	=8-	=8-	=8-	=8-	=8-
4E	-go	2.g	-go	2e	-go	4g	-go
4F	.	.	.	.	.	4a	.
4G	ma	.	.	2d	ma	4b	ma
4A	.	4g	ma	.	.	4cc	.
2B	roʃ-	4f	roʃ-	2d	roʃ-	4dd	roʃ-
.	.	4e	.	.	.	4cc	.
2c	-ťa-	4e	-ťa-	4e	-ťa-	1cc	-ťa-
.	.	8dL	.	4f	.	.	.
.	.	8cJJJ	.	.	.	.	.
=9-	=9-	=9-	=9-	=9-	=9-	=9-	=9-
1G	-ӡá-	1d	-ӡá-	2.g	-ӡá-	.	.
.	.	.	.	.	.	2b	-ӡá-
.	.	.	.	4f	.	.	.
2A	-nié	2c/	-nié	2e	-nié	2cc	-nié
2F	Ӡá	2f	Ӡá	2a	Ӡá	2cc	Ӡá
=10-	=10-	=10-	=10-	=10-	=10-	=10-	=10l-
2C	o-	2.e	o-	2g	o-	2cc	o-
4c	-ʃob-	.	.	2g	-ʃob-	1cc	-ʃob-
4B	.	4d	.	.	.	.	.
4A	.	4c	-ʃob-	2e	.	.	.
4G	.	4B	.	.	.	.	.
2A	-li-	2c	-li-	2c	-li-	4b	-li-
.	.	.	.	.	.	4a	.
=11-	=11-	=11-	=11-	=11-	=11-	=11-	=11-
2G	-we	2B	-we	2d	-we	2b/	-we
2C	ťo-	2c	ťo-	4e	ťo-	4g	ťo-
.	.	.	.	4f	.	4a	.
1G	-chá-	1d	-chá-	2.g	-chá-	4b/	-chá-
.	.	.	.	.	.	2cc	.
.	.	.	.	4f	.	4b/	.
=12-	=12-	=12-	=12-	=12-	=12-	=12-	=12-
!!LO:N:vis=00
0C/	-nié.	0c	-nié.	0e	-nié.	0cc	-nié.
=-=-	=-	=-	=-	=-	=-	=-	=-
*-	*-	*-	*-	*-	*-	*-	*-
!!!RDF**kern: l = terminal long
!!!system-decoration: s1,s2,s3,s4
!!!RDF**kern: > = above
!!!ENC:Anna Matuszewska
!!!END:2020-02-18
!!!URL-scan: https://polona.pl/item/melodiae-na-psalterz-polski,Nzk3MTM4ODQ/260 Scan on Polona
!!!IIIF: https://polona.pl/iiif/item/Nzk3MTM4ODQ/manifest.json
